svgs/joyn.svg

<svg width="192" height="192" viewBox="0 0 192 192" fill="none" xmlns="http://www.w3.org/2000/svg">
<path d="M22 73.3676H35.2231V113.037C35.2231 119.649 31.6023 126.325 22 126.26" stroke="black" stroke-width="12" stroke-linecap="round" stroke-linejoin="round"/>
<path d="M68.1714 106.632C77.3572 106.632 84.8038 99.1858 84.8038 90C84.8038 80.8142 77.3572 73.3676 68.1714 73.3676C58.9856 73.3676 51.5391 80.8142 51.5391 90C51.5391 99.1858 58.9856 106.632 68.1714 106.632Z" stroke="black" stroke-width="12" stroke-linecap="round" stroke-linejoin="round"/>
<path d="M101.12 73.3676V93.2024C102.442 109.07 123.599 109.07 127.566 93.2024" stroke="black" stroke-width="12" stroke-linecap="round" stroke-linejoin="round"/>
<path d="M127.566 73.3676V113.037C126.932 125.401 111.676 132.187 102.442 119.649" stroke="black" stroke-width="12" stroke-linecap="round" stroke-linejoin="round"/>
<path d="M143.554 73.3676V107.748" stroke="black" stroke-width="12" stroke-linecap="round" stroke-linejoin="round"/>
<path d="M170 107.748V85.2685C170 69.4007 143.554 69.4007 143.554 85.2685" stroke="black" stroke-width="12" stroke-linecap="round" stroke-linejoin="round"/>
</svg>

<svg xmlns="http://www.w3.org/2000/svg" width="192" height="192" fill="none" viewBox="0 0 192 192"><path stroke="#000" stroke-linecap="round" stroke-linejoin="round" stroke-width="12" d="M22 73.368h13.223v39.669c0 6.612-3.62 13.288-13.223 13.223M68.171 106.632c9.186 0 16.633-7.446 16.633-16.632 0-9.186-7.447-16.632-16.633-16.632-9.185 0-16.632 7.446-16.632 16.632 0 9.186 7.447 16.632 16.632 16.632ZM101.12 73.368v19.834c1.322 15.868 22.479 15.868 26.446 0"/><path stroke="#000" stroke-linecap="round" stroke-linejoin="round" stroke-width="12" d="M127.566 73.368v39.669c-.634 12.364-15.89 19.15-25.124 6.612M143.554 73.368v34.38M170 107.748v-22.48c0-15.867-26.446-15.867-26.446 0"/></svg>
